packages/foundations/assets/icons/functional/images/maps/location_arrow_north.svg

<svg xmlns="http://www.w3.org/2000/svg" width="32" height="32" fill="none"><path fill="#1A1C1F" fill-rule="evenodd" d="M15.573 2.68c-.132.07-.312.23-.4.355l-.16.228v1.582c0 1.501.006 1.593.112 1.795.061.117.213.285.338.373.189.134.278.16.537.16s.348-.026.537-.16c.125-.088.277-.256.338-.373.106-.202.112-.294.112-1.795V3.263l-.16-.227c-.302-.426-.837-.579-1.254-.356m.198 5.963c-.272.046-.498.272-.686.685-.45.993-6.849 18.027-7.04 18.743-.16.597.362 1.283 1.029 1.352.548.056.508.09 3.657-3.034 1.578-1.565 2.959-2.914 3.069-2.997l.2-.151.2.151c.11.083 1.491 1.432 3.068 2.996 2.051 2.035 2.932 2.874 3.093 2.947.394.179.837.112 1.19-.179.214-.177.448-.618.448-.849.001-.171-.316-1.062-1.695-4.76-2.354-6.315-5.272-14.009-5.47-14.426-.175-.366-.598-.557-1.063-.478m.945 5.744c1.677 4.403 3.928 10.427 3.905 10.45-.014.013-.693-.632-1.51-1.434-2.613-2.567-2.592-2.55-3.111-2.55s-.5-.015-3.085 2.523c-.832.817-1.524 1.472-1.539 1.458-.029-.029.83-2.329 3.079-8.247a645 645 0 0 0 1.477-3.907c.015-.051.043-.093.063-.093.019 0 .344.81.721 1.8"/></svg>

<svg width="32" height="32" viewBox="0 0 32 32" fill="none" xmlns="http://www.w3.org/2000/svg"><path d="M15.573 2.680 C 15.441 2.750,15.261 2.910,15.173 3.035 L 15.013 3.263 15.013 4.845 C 15.013 6.346,15.019 6.438,15.125 6.640 C 15.186 6.757,15.338 6.925,15.463 7.013 C 15.652 7.147,15.741 7.173,16.000 7.173 C 16.259 7.173,16.348 7.147,16.537 7.013 C 16.662 6.925,16.814 6.757,16.875 6.640 C 16.981 6.438,16.987 6.346,16.987 4.845 L 16.987 3.263 16.827 3.036 C 16.525 2.610,15.990 2.457,15.573 2.680 M15.771 8.643 C 15.499 8.689,15.273 8.915,15.085 9.328 C 14.635 10.321,8.236 27.355,8.045 28.071 C 7.885 28.668,8.407 29.354,9.074 29.423 C 9.622 29.479,9.582 29.513,12.731 26.389 C 14.309 24.824,15.690 23.475,15.800 23.392 L 16.000 23.241 16.200 23.392 C 16.310 23.475,17.691 24.824,19.268 26.388 C 21.319 28.423,22.200 29.262,22.361 29.335 C 22.755 29.514,23.198 29.447,23.551 29.156 C 23.765 28.979,23.999 28.538,23.999 28.307 C 24.000 28.136,23.683 27.245,22.304 23.547 C 19.950 17.232,17.032 9.538,16.834 9.121 C 16.659 8.755,16.236 8.564,15.771 8.643 M16.716 14.387 C 18.393 18.790,20.644 24.814,20.621 24.837 C 20.607 24.850,19.928 24.205,19.111 23.403 C 16.498 20.836,16.519 20.853,16.000 20.853 C 15.481 20.853,15.500 20.838,12.915 23.376 C 12.083 24.193,11.391 24.848,11.376 24.834 C 11.347 24.805,12.206 22.505,14.455 16.587 C 15.252 14.489,15.917 12.731,15.932 12.680 C 15.947 12.629,15.975 12.587,15.995 12.587 C 16.014 12.587,16.339 13.397,16.716 14.387 " fill="#1A1C1F" stroke="none" fill-rule="evenodd"></path></svg>
